X:1
T: Miss Burnett of Monboddo's Reel
C:Robert Mackintosh
R:Reel
Q: 232
K:Cm
M:4/4
L:1/8
|:C1/2C1/2C CD EF GB|DB, FB, DB, B,D|C1/2C1/2C CD EF Gc|ec d=B c1/2c1/2c c2|
C1/2C1/2C CD EF GB|DB, FB, DB, B,D|C1/2C1/2C CD EF Gc|ec d=B c1/2c1/2c c2|
cd ed ed cd|fg fd Bc dB|cd ec d=B cG|BF GD EC C=B|
cd ed ed ce|fg fd Bc de|gb fg df GB|DB, FD EC C2:|
